X:44
T:Katherine Ogie
C:arr. Carlo Minasi
M:C
L:1/8
B:Chappell's One Hundred Scotch Melodies
B:Arranged for the Concertina by Carlo Minasi
Q:"Andante  "1/4=120
Z:Peter Dunk 2012
K:Bb
!p!G>F|D2(G>A) G3 A|(B2 A>G) G2 AB|\
(c3 d) (cAGA)|(F3 G A2) (GF)|
D2 (G>A)G3 A|(B2 A>G) ([ge]>[fd])|\
([d2B2] [cA][BG]) ([BG]>[cA][A^F]>[BD])|L([G4B,4] d2)||
([GDB,]>A) (Bcde) (f3 g)|(fdcd) [f2d2B2] c>B|\
A2 (f>d) (c>AG>A)|(F3 G A2) (G>F)|
[B2G2D2] (A>G) G3 D|(GA[BG][cA]) ([d2B2] cB)|\
([cAF]>GAB) LG<E LE>D| [G3B,3]||

